flaticon/grooming/manicure-16.svg

<svg xmlns="http://www.w3.org/2000/svg" width="32" height="32" viewBox="0 0 24 24">
    <path d="M16.300781 16.378906C16.058594 16.378906 15.898438 16.582031 15.898438 16.78125 15.898438 17.019531 16.058594 17.183594 16.300781 17.183594 16.539062 17.183594 16.699219 17.019531 16.699219 16.78125 16.699219 16.539062 16.539062 16.378906 16.300781 16.378906zM12.289062 15.175781C12.046875 15.175781 11.886719 15.378906 11.886719 15.578125 11.886719 15.816406 12.046875 15.980469 12.289062 15.980469 12.53125 15.980469 12.691406 15.816406 12.691406 15.578125 12.691406 15.335938 12.53125 15.175781 12.289062 15.175781zM11.488281 14.777344C11.726562 14.777344 11.886719 14.613281 11.886719 14.375 11.886719 14.132812 11.726562 13.972656 11.488281 13.972656 11.246094 13.972656 11.085938 14.175781 11.085938 14.375 11.085938 14.613281 11.246094 14.777344 11.488281 14.777344zM13.089844 13.972656C12.851562 13.972656 12.691406 14.171875 12.691406 14.375 12.691406 14.613281 12.851562 14.773438 13.089844 14.773438 13.332031 14.773438 13.492188 14.613281 13.492188 14.375 13.492188 14.132812 13.332031 13.972656 13.089844 13.972656zM14.695312 16.378906C14.453125 16.378906 14.292969 16.582031 14.292969 16.78125 14.292969 17.019531 14.453125 17.183594 14.695312 17.183594 14.9375 17.183594 15.097656 17.019531 15.097656 16.78125 15.097656 16.539062 14.9375 16.378906 14.695312 16.378906zM16.300781 13.972656C16.058594 13.972656 15.898438 14.171875 15.898438 14.375 15.898438 14.613281 16.058594 14.773438 16.300781 14.773438 16.539062 14.773438 16.699219 14.613281 16.699219 14.375 16.699219 14.132812 16.539062 13.972656 16.300781 13.972656zM17.902344 13.972656C17.664062 13.972656 17.503906 14.171875 17.503906 14.375 17.503906 14.613281 17.664062 14.773438 17.902344 14.773438 18.144531 14.773438 18.304688 14.613281 18.304688 14.375 18.304688 14.132812 18.144531 13.972656 17.902344 13.972656zM14.695312 13.972656C14.453125 13.972656 14.292969 14.171875 14.292969 14.375 14.292969 14.613281 14.453125 14.773438 14.695312 14.773438 14.9375 14.773438 15.097656 14.613281 15.097656 14.375 15.097656 14.132812 14.9375 13.972656 14.695312 13.972656zM13.089844 16.378906C12.851562 16.378906 12.691406 16.582031 12.691406 16.78125 12.691406 17.019531 12.851562 17.183594 13.089844 17.183594 13.332031 17.183594 13.492188 17.019531 13.492188 16.78125 13.492188 16.539062 13.332031 16.378906 13.089844 16.378906zM13.894531 15.175781C13.652344 15.175781 13.492188 15.378906 13.492188 15.578125 13.492188 15.816406 13.652344 15.980469 13.894531 15.980469 14.132812 15.980469 14.292969 15.816406 14.292969 15.578125 14.292969 15.335938 14.132812 15.175781 13.894531 15.175781zM15.496094 15.175781C15.257812 15.175781 15.097656 15.378906 15.097656 15.578125 15.097656 15.816406 15.257812 15.980469 15.496094 15.980469 15.738281 15.980469 15.898438 15.816406 15.898438 15.578125 15.898438 15.335938 15.738281 15.175781 15.496094 15.175781zM17.101562 15.175781C16.859375 15.175781 16.699219 15.378906 16.699219 15.578125 16.699219 15.816406 16.859375 15.980469 17.101562 15.980469 17.34375 15.980469 17.503906 15.816406 17.503906 15.578125 17.503906 15.335938 17.34375 15.175781 17.101562 15.175781zM12.289062 13.570312C12.53125 13.570312 12.691406 13.410156 12.691406 13.171875 12.691406 12.929688 12.53125 12.769531 12.289062 12.769531 12.046875 12.769531 11.886719 12.96875 11.886719 13.171875 11.886719 13.410156 12.046875 13.570312 12.289062 13.570312zM13.089844 12.367188C13.332031 12.367188 13.492188 12.207031 13.492188 11.96875 13.492188 11.726562 13.332031 11.566406 13.089844 11.566406 12.851562 11.566406 12.691406 11.765625 12.691406 11.96875 12.691406 12.207031 12.851562 12.367188 13.089844 12.367188zM16.300781 12.367188C16.539062 12.367188 16.699219 12.207031 16.699219 11.96875 16.699219 11.726562 16.539062 11.566406 16.300781 11.566406 16.058594 11.566406 15.898438 11.765625 15.898438 11.96875 15.898438 12.207031 16.058594 12.367188 16.300781 12.367188zM14.695312 12.367188C14.9375 12.367188 15.097656 12.207031 15.097656 11.96875 15.097656 11.726562 14.9375 11.566406 14.695312 11.566406 14.453125 11.566406 14.292969 11.765625 14.292969 11.96875 14.292969 12.207031 14.453125 12.367188 14.695312 12.367188zM13.894531 13.570312C14.132812 13.570312 14.292969 13.410156 14.292969 13.171875 14.292969 12.929688 14.132812 12.769531 13.894531 12.769531 13.652344 12.769531 13.492188 12.96875 13.492188 13.171875 13.492188 13.410156 13.652344 13.570312 13.894531 13.570312zM15.496094 13.570312C15.738281 13.570312 15.898438 13.410156 15.898438 13.171875 15.898438 12.929688 15.738281 12.769531 15.496094 12.769531 15.257812 12.769531 15.097656 12.96875 15.097656 13.171875 15.097656 13.410156 15.257812 13.570312 15.496094 13.570312zM17.101562 12.769531C16.859375 12.769531 16.699219 12.96875 16.699219 13.171875 16.699219 13.410156 16.859375 13.570312 17.101562 13.570312 17.34375 13.570312 17.503906 13.410156 17.503906 13.171875 17.503906 12.929688 17.34375 12.769531 17.101562 12.769531zM17.902344 11.566406C17.664062 11.566406 17.503906 11.765625 17.503906 11.96875 17.503906 12.207031 17.664062 12.367188 17.902344 12.367188 18.144531 12.367188 18.304688 12.207031 18.304688 11.96875 18.304688 11.726562 18.144531 11.566406 17.902344 11.566406zM16.699219 10.765625C16.699219 11.003906 16.859375 11.164062 17.101562 11.164062 17.34375 11.164062 17.503906 11.003906 17.503906 10.765625 17.503906 10.523438 17.34375 10.363281 17.101562 10.363281 16.859375 10.363281 16.699219 10.5625 16.699219 10.765625zM16.699219 10.765625"/>
    <path d="M 18.953125 10.355469 C 18.789062 8.925781 18.421875 7.445312 17.617188 5.871094 C 17.582031 5.570312 17.4375 5.308594 17.214844 5.136719 C 17.082031 4.90625 16.9375 4.675781 16.78125 4.445312 C 17.027344 4.097656 17.039062 3.667969 16.820312 3.304688 C 16.582031 2.902344 16.097656 2.742188 15.617188 2.902344 C 15.539062 2.945312 15.457031 2.902344 15.417969 2.863281 C 15.375 2.824219 15.296875 2.785156 15.335938 2.664062 L 15.335938 2.621094 C 15.375 2.261719 15.296875 1.902344 15.015625 1.660156 C 14.773438 1.378906 14.375 1.300781 14.011719 1.417969 L 10.253906 3.503906 L 5.632812 0.214844 C 5.191406 -0.0234375 4.707031 -0.0625 4.1875 0.0976562 C 3.746094 0.214844 3.34375 0.539062 3.105469 0.980469 C 2.863281 1.417969 2.824219 1.902344 2.984375 2.382812 C 3.144531 2.863281 3.503906 3.222656 3.988281 3.464844 L 9.082031 5.867188 L 9.519531 10.003906 L 9.519531 10.082031 C 9.605469 10.335938 9.769531 10.550781 9.984375 10.683594 C 8.890625 11.589844 8.277344 12.929688 8.277344 14.335938 L 8.277344 19.589844 C 8.277344 22.035156 10.242188 24 12.691406 24 L 16.699219 24 C 19.148438 24 21.113281 22.035156 21.113281 19.628906 L 21.113281 14.335938 C 21.113281 12.707031 20.328125 11.238281 18.953125 10.355469 Z M 18.304688 11.785156 L 18.304688 15.457031 C 18.304688 15.804688 18.246094 16.136719 18.132812 16.441406 C 18.070312 16.402344 17.992188 16.378906 17.902344 16.378906 C 17.664062 16.378906 17.503906 16.582031 17.503906 16.78125 C 17.503906 16.96875 17.601562 17.105469 17.753906 17.160156 C 17.628906 17.335938 17.480469 17.496094 17.316406 17.636719 C 17.257812 17.601562 17.183594 17.582031 17.101562 17.582031 C 16.859375 17.582031 16.699219 17.785156 16.699219 17.984375 C 16.699219 18.003906 16.703125 18.027344 16.703125 18.046875 C 16.402344 18.195312 16.070312 18.292969 15.714844 18.328125 C 15.828125 18.261719 15.898438 18.140625 15.898438 17.984375 C 15.898438 17.742188 15.738281 17.582031 15.496094 17.582031 C 15.257812 17.582031 15.097656 17.785156 15.097656 17.984375 C 15.097656 18.152344 15.175781 18.28125 15.308594 18.34375 L 14.082031 18.34375 C 14.214844 18.28125 14.292969 18.152344 14.292969 17.984375 C 14.292969 17.742188 14.132812 17.582031 13.894531 17.582031 C 13.652344 17.582031 13.492188 17.785156 13.492188 17.984375 C 13.492188 18.140625 13.5625 18.261719 13.675781 18.328125 C 13.320312 18.292969 12.988281 18.195312 12.6875 18.046875 C 12.6875 18.027344 12.691406 18.003906 12.691406 17.984375 C 12.691406 17.742188 12.53125 17.582031 12.289062 17.582031 C 12.210938 17.582031 12.136719 17.605469 12.078125 17.640625 C 11.914062 17.5 11.765625 17.335938 11.636719 17.160156 C 11.789062 17.105469 11.886719 16.96875 11.886719 16.78125 C 11.886719 16.539062 11.726562 16.378906 11.488281 16.378906 C 11.398438 16.378906 11.320312 16.40625 11.257812 16.449219 C 11.148438 16.140625 11.085938 15.808594 11.085938 15.457031 L 11.085938 14.171875 C 11.085938 13.511719 11.085938 12.820312 11.109375 12.113281 C 11.160156 12.269531 11.296875 12.367188 11.488281 12.367188 C 11.726562 12.367188 11.886719 12.207031 11.886719 11.96875 C 11.886719 11.726562 11.726562 11.566406 11.488281 11.566406 C 11.3125 11.566406 11.179688 11.675781 11.117188 11.808594 C 11.136719 11.386719 11.164062 10.960938 11.203125 10.527344 C 11.203125 10.527344 11.203125 10.523438 11.207031 10.523438 L 11.246094 10.484375 C 11.328125 10.402344 11.40625 10.402344 11.445312 10.402344 C 11.464844 10.402344 11.492188 10.414062 11.519531 10.433594 C 11.539062 10.457031 11.554688 10.484375 11.566406 10.523438 C 11.613281 10.695312 11.703125 10.839844 11.820312 10.957031 C 12.007812 11.164062 12.28125 11.285156 12.570312 11.285156 C 12.570312 11.285156 12.570312 11.285156 12.648438 11.285156 C 13.132812 11.246094 13.53125 10.925781 13.613281 10.445312 C 13.652344 10.324219 13.734375 10.285156 13.773438 10.285156 C 13.796875 10.285156 13.851562 10.285156 13.90625 10.300781 C 13.914062 10.308594 13.925781 10.316406 13.933594 10.324219 C 14.023438 10.402344 14.121094 10.464844 14.21875 10.511719 C 14.519531 10.675781 14.867188 10.679688 15.175781 10.527344 C 15.125 10.597656 15.097656 10.679688 15.097656 10.765625 C 15.097656 11.003906 15.257812 11.164062 15.496094 11.164062 C 15.738281 11.164062 15.898438 11.003906 15.898438 10.765625 C 15.898438 10.523438 15.738281 10.363281 15.496094 10.363281 C 15.464844 10.363281 15.433594 10.367188 15.40625 10.375 C 15.695312 10.113281 15.796875 9.699219 15.65625 9.28125 C 15.617188 9.199219 15.65625 9.121094 15.699219 9.082031 C 15.738281 9.082031 15.816406 9 15.9375 9.039062 C 16.378906 9.160156 16.859375 8.921875 17.0625 8.519531 C 17.300781 8.078125 17.183594 7.597656 16.820312 7.277344 C 16.742188 7.195312 16.742188 7.113281 16.742188 7.074219 C 16.742188 7.035156 16.78125 6.953125 16.902344 6.914062 C 17.019531 6.882812 17.125 6.832031 17.222656 6.761719 C 18.019531 8.527344 18.25 10.179688 18.304688 11.785156 Z M 3.746094 2.140625 C 3.664062 1.859375 3.707031 1.582031 3.828125 1.339844 C 3.945312 1.097656 4.1875 0.898438 4.429688 0.816406 C 4.707031 0.738281 4.988281 0.777344 5.191406 0.898438 L 9.722656 4.105469 L 9.242188 5.03125 L 4.308594 2.703125 C 4.027344 2.582031 3.867188 2.382812 3.746094 2.140625 Z M 9.804688 5.722656 L 10.128906 5.089844 L 10.523438 4.347656 L 14.214844 2.300781 C 14.292969 2.300781 14.375 2.34375 14.414062 2.382812 C 14.453125 2.421875 14.496094 2.460938 14.453125 2.582031 C 14.335938 2.945312 14.453125 3.304688 14.734375 3.546875 C 15.015625 3.785156 15.417969 3.867188 15.777344 3.746094 C 15.898438 3.707031 15.980469 3.785156 16.019531 3.828125 C 16.050781 3.859375 16.085938 3.945312 16.03125 4.042969 C 15.996094 4.058594 15.964844 4.082031 15.9375 4.105469 C 15.699219 4.386719 15.617188 4.75 15.738281 5.109375 C 15.859375 5.46875 16.140625 5.710938 16.539062 5.792969 C 16.660156 5.832031 16.699219 5.953125 16.699219 5.992188 C 16.699219 6.03125 16.699219 6.152344 16.539062 6.191406 C 16.21875 6.3125 15.9375 6.59375 15.859375 6.953125 C 15.777344 7.316406 15.898438 7.675781 16.179688 7.957031 C 16.300781 8.039062 16.257812 8.15625 16.21875 8.199219 C 16.21875 8.238281 16.140625 8.316406 15.980469 8.277344 C 15.617188 8.15625 15.257812 8.277344 15.015625 8.558594 C 14.847656 8.726562 14.757812 8.96875 14.761719 9.210938 C 14.757812 9.328125 14.777344 9.445312 14.816406 9.5625 C 14.820312 9.578125 14.824219 9.589844 14.824219 9.605469 C 14.816406 9.679688 14.765625 9.730469 14.734375 9.761719 C 14.695312 9.800781 14.574219 9.84375 14.453125 9.722656 C 14.171875 9.441406 13.8125 9.359375 13.453125 9.480469 C 13.089844 9.601562 12.851562 9.882812 12.769531 10.285156 C 12.730469 10.402344 12.609375 10.445312 12.570312 10.445312 C 12.527344 10.445312 12.410156 10.445312 12.367188 10.285156 C 12.25 9.960938 11.96875 9.683594 11.605469 9.601562 C 11.246094 9.519531 10.886719 9.640625 10.605469 9.921875 L 10.5625 9.960938 C 10.539062 9.988281 10.515625 10.011719 10.492188 10.035156 C 10.457031 10.042969 10.425781 10.042969 10.402344 10.042969 C 10.363281 10.042969 10.285156 10.003906 10.242188 9.921875 Z M 20.308594 19.628906 C 20.308594 21.632812 18.707031 23.238281 16.699219 23.238281 L 12.691406 23.238281 C 10.683594 23.238281 9.082031 21.632812 9.082031 19.628906 L 9.082031 14.335938 C 9.082031 13.25 9.519531 12.207031 10.285156 11.488281 L 10.285156 12.273438 C 10.273438 12.929688 10.285156 13.570312 10.285156 14.214844 L 10.285156 15.496094 C 10.285156 17.542969 11.929688 19.1875 13.972656 19.1875 L 15.417969 19.1875 C 16.441406 19.1875 17.363281 18.773438 18.027344 18.113281 C 18.695312 17.445312 19.105469 16.519531 19.105469 15.496094 L 19.105469 11.488281 C 19.867188 12.25 20.308594 13.25 20.308594 14.335938 Z M 20.308594 19.628906"/>
    <path d="M 13.171875 8.597656 C 13.25 8.71875 13.371094 8.757812 13.492188 8.757812 C 13.570312 8.757812 13.652344 8.757812 13.734375 8.71875 C 13.894531 8.597656 13.933594 8.316406 13.8125 8.15625 L 12.25 5.992188 L 15.097656 5.992188 C 15.335938 5.992188 15.496094 5.832031 15.496094 5.589844 C 15.496094 5.351562 15.335938 5.191406 15.097656 5.191406 L 11.488281 5.191406 C 11.328125 5.191406 11.164062 5.269531 11.125 5.390625 C 11.085938 5.511719 11.085938 5.671875 11.164062 5.792969 Z M 13.171875 8.597656"/>
</svg>

<svg xmlns="http://www.w3.org/2000/svg" width="32" height="32" viewBox="0 0 24 24">
    <path d="M16.3 16.379a.404.404 0 0 0-.402.402c0 .239.16.403.403.403.238 0 .398-.164.398-.403 0-.242-.16-.402-.398-.402zm0 0M12.29 15.176a.404.404 0 0 0-.403.402c0 .238.16.402.402.402.242 0 .402-.164.402-.402 0-.242-.16-.402-.402-.402zm0 0M11.488 14.777c.239 0 .399-.164.399-.402 0-.242-.16-.402-.399-.402a.404.404 0 0 0-.402.402c0 .238.16.402.402.402zm0 0M13.09 13.973a.4.4 0 0 0-.399.402c0 .238.16.398.399.398.242 0 .402-.16.402-.398 0-.242-.16-.402-.402-.402zm0 0M14.695 16.379a.404.404 0 0 0-.402.402c0 .239.16.403.402.403.242 0 .403-.164.403-.403 0-.242-.16-.402-.403-.402zm0 0M16.3 13.973c-.241 0-.402.199-.402.402 0 .238.16.398.403.398.238 0 .398-.16.398-.398 0-.242-.16-.402-.398-.402zm0 0M17.902 13.973a.4.4 0 0 0-.398.402c0 .238.16.398.398.398.243 0 .403-.16.403-.398 0-.242-.16-.402-.403-.402zm0 0M14.695 13.973c-.242 0-.402.199-.402.402 0 .238.16.398.402.398.242 0 .403-.16.403-.398 0-.242-.16-.402-.403-.402zm0 0M13.09 16.379a.403.403 0 0 0-.399.402c0 .239.16.403.399.403.242 0 .402-.164.402-.403 0-.242-.16-.402-.402-.402zm0 0M13.895 15.176a.404.404 0 0 0-.403.402c0 .238.16.402.403.402.238 0 .398-.164.398-.402 0-.242-.16-.402-.398-.402zm0 0M15.496 15.176a.403.403 0 0 0-.398.402c0 .238.16.402.398.402.242 0 .402-.164.402-.402 0-.242-.16-.402-.402-.402zm0 0M17.102 15.176a.404.404 0 0 0-.403.402c0 .238.16.402.403.402.242 0 .402-.164.402-.402 0-.242-.16-.402-.402-.402zm0 0M12.29 13.57c.241 0 .401-.16.401-.398 0-.242-.16-.402-.402-.402-.242 0-.402.199-.402.402 0 .238.16.398.402.398zm0 0M13.09 12.367c.242 0 .402-.16.402-.398 0-.242-.16-.403-.402-.403a.4.4 0 0 0-.399.403c0 .238.16.398.399.398zm0 0M16.3 12.367c.24 0 .4-.16.4-.398 0-.242-.16-.403-.4-.403-.241 0-.402.2-.402.403 0 .238.16.398.403.398zm0 0M14.695 12.367c.242 0 .403-.16.403-.398 0-.242-.16-.403-.403-.403-.242 0-.402.2-.402.403 0 .238.16.398.402.398zm0 0M13.895 13.57c.238 0 .398-.16.398-.398 0-.242-.16-.402-.398-.402-.243 0-.403.199-.403.402 0 .238.16.398.403.398zm0 0M15.496 13.57c.242 0 .402-.16.402-.398 0-.242-.16-.402-.402-.402a.4.4 0 0 0-.398.402c0 .238.16.398.398.398zm0 0M17.102 12.77c-.243 0-.403.199-.403.402 0 .238.16.398.403.398.242 0 .402-.16.402-.398 0-.242-.16-.402-.402-.402zm0 0M17.902 11.566a.4.4 0 0 0-.398.403c0 .238.16.398.398.398.243 0 .403-.16.403-.398 0-.242-.16-.403-.403-.403zm0 0M16.7 10.766c0 .238.16.398.402.398.242 0 .402-.16.402-.398 0-.243-.16-.403-.402-.403-.243 0-.403.2-.403.403zm0 0"/>
    <path d="M18.953 10.355c-.164-1.43-.531-2.91-1.336-4.484-.035-.3-.18-.562-.402-.734-.133-.23-.277-.461-.434-.692a1.02 1.02 0 0 0 .04-1.14c-.239-.403-.723-.563-1.204-.403-.078.043-.16 0-.199-.039-.043-.039-.121-.078-.082-.199v-.043c.039-.36-.04-.719-.32-.96-.243-.282-.641-.36-1.004-.243l-3.758 2.086L5.633.214C5.19-.022 4.707-.061 4.187.099c-.44.117-.843.441-1.082.882a1.708 1.708 0 0 0-.12 1.403c.16.48.519.84 1.003 1.082l5.094 2.402.438 4.137v.078c.085.254.25.469.464.602a4.73 4.73 0 0 0-1.707 3.652v5.254A4.399 4.399 0 0 0 12.691 24H16.7c2.45 0 4.414-1.965 4.414-4.371v-5.293c0-1.629-.785-3.098-2.16-3.98zm-.648 1.43v3.672c0 .348-.059.68-.172.984a.431.431 0 0 0-.23-.062.403.403 0 0 0-.4.402c0 .188.099.324.25.38a2.665 2.665 0 0 1-.437.476.418.418 0 0 0-.214-.055.404.404 0 0 0-.403.402c0 .02.004.043.004.063-.3.148-.633.246-.988.281a.382.382 0 0 0 .183-.344c0-.242-.16-.402-.402-.402a.403.403 0 0 0-.398.402c0 .168.078.297.21.36h-1.226c.133-.063.211-.192.211-.36 0-.242-.16-.402-.398-.402a.404.404 0 0 0-.403.402c0 .157.07.278.184.344a2.862 2.862 0 0 1-.989-.281c0-.02.004-.043.004-.063 0-.242-.16-.402-.402-.402a.416.416 0 0 0-.21.059 2.866 2.866 0 0 1-.442-.48c.152-.056.25-.192.25-.38 0-.242-.16-.402-.399-.402a.403.403 0 0 0-.23.07 2.957 2.957 0 0 1-.172-.992v-1.285c0-.66 0-1.352.023-2.059.051.157.188.254.38.254.238 0 .398-.16.398-.398 0-.242-.16-.403-.399-.403a.41.41 0 0 0-.37.243c.019-.422.046-.848.085-1.282 0 0 0-.004.004-.004l.04-.039c.081-.082.16-.082.198-.082.02 0 .047.012.075.032.02.023.035.05.046.09a.97.97 0 0 0 .254.433c.188.207.461.328.75.328h.078c.485-.039.883-.36.965-.84.04-.12.121-.16.16-.16.024 0 .079 0 .133.016.008.008.02.015.028.023.09.078.187.14.285.188.3.164.648.168.957.015a.405.405 0 0 0-.078.239c0 .238.16.398.398.398.242 0 .402-.16.402-.398 0-.243-.16-.403-.402-.403a.333.333 0 0 0-.09.012c.29-.262.39-.676.25-1.094a.17.17 0 0 1 .043-.199c.04 0 .117-.082.239-.043.44.121.921-.117 1.124-.52.239-.44.122-.921-.242-1.242-.078-.082-.078-.164-.078-.203 0-.039.04-.12.16-.16a.969.969 0 0 0 .32-.152c.798 1.765 1.028 3.418 1.083 5.023zM3.746 2.141A1.087 1.087 0 0 1 4.43.816a.986.986 0 0 1 .761.082l4.532 3.207-.48.926-4.934-2.328c-.282-.121-.442-.32-.563-.562zm6.059 3.582l.324-.633.394-.742L14.215 2.3c.078 0 .16.043.2.082.038.039.081.078.038.199a.887.887 0 0 0 .281.965c.282.238.684.32 1.043.2.121-.04.203.038.243.081.03.031.066.117.011.215a.393.393 0 0 0-.093.062c-.239.282-.32.645-.2 1.004.121.36.403.602.801.684.121.039.16.16.16.2 0 .038 0 .16-.16.198-.32.122-.602.403-.68.762-.082.363.04.723.32 1.004.122.082.079.2.04.242 0 .04-.078.117-.239.078-.363-.12-.722 0-.964.282a.908.908 0 0 0-.254.652c-.004.117.015.234.054.351.004.016.008.028.008.043-.008.075-.058.125-.09.157-.039.039-.16.082-.28-.04a.939.939 0 0 0-1-.242c-.364.122-.602.403-.684.805a.246.246 0 0 1-.2.16c-.043 0-.16 0-.203-.16a1.078 1.078 0 0 0-.762-.683c-.359-.082-.718.039-1 .32l-.043.039c-.023.027-.046.05-.07.074-.035.008-.066.008-.09.008-.039 0-.117-.04-.16-.121zm10.504 13.906a3.594 3.594 0 0 1-3.61 3.61h-4.008a3.594 3.594 0 0 1-3.609-3.61v-5.293c0-1.086.438-2.129 1.203-2.848v.785c-.012.657 0 1.297 0 1.942v1.281a3.68 3.68 0 0 0 3.688 3.691h1.445a3.69 3.69 0 0 0 2.61-1.074 3.687 3.687 0 0 0 1.077-2.617v-4.008c.762.762 1.204 1.762 1.204 2.848zm0 0"/>
    <path d="M13.172 8.598c.078.12.2.16.32.16.078 0 .16 0 .242-.04.16-.12.2-.402.079-.562L12.25 5.992h2.848c.238 0 .398-.16.398-.402 0-.238-.16-.399-.398-.399h-3.61c-.16 0-.324.079-.363.2a.489.489 0 0 0 .04.402zm0 0"/>
</svg>
